blockchains/ethereum/assets/0x92D6C1e31e14520e676a687F0a93788B716BEff5/logo.svg

<svg fill="none" height="250" viewBox="0 0 250 250" width="250" xmlns="http://www.w3.org/2000/svg" xmlns:xlink="http://www.w3.org/1999/xlink"><linearGradient id="a" gradientUnits="userSpaceOnUse" x1="125" x2="125" y1="0" y2="250"><stop offset="0" stop-color="#201a6d"/><stop offset="1" stop-color="#091739"/></linearGradient><linearGradient id="b" gradientUnits="userSpaceOnUse" x1="83.675" x2="127.049" y1="61.1354" y2="113.497"><stop offset="0" stop-color="#fff"/><stop offset="1" stop-color="#fff" stop-opacity=".55"/></linearGradient><linearGradient id="c" gradientUnits="userSpaceOnUse" x1="169.302" x2="116.012" y1="188.259" y2="116.418"><stop offset="0" stop-color="#6966ff"/><stop offset="1" stop-color="#6966ff" stop-opacity=".36"/></linearGradient><clipPath id="d"><path d="m0 0h250v250h-250z"/></clipPath><g clip-path="url(#d)"><path clip-rule="evenodd" d="m250 125c0 69.036-55.964 125-125 125-69.0359 0-125-55.964-125-125 0-69.0359 55.9641-125 125-125 69.036 0 125 55.9641 125 125z" fill="url(#a)" fill-rule="evenodd"/><path d="m158.988 51.9141-102.977 147.5289h31.616l103.51-147.5289z" fill="#fff"/><path d="m90.9203 51.9141 30.2987 43.4718-15.808 23.7121-46.7652-67.1839z" fill="url(#b)"/><path d="m162.056 199.456-33.592-48.082 15.808-23.054 49.4 71.136z" fill="url(#c)"/></g></svg>

<svg width="250" height="250" viewBox="0 0 250 250" fill="none" xmlns="http://www.w3.org/2000/svg">
<g clip-path="url(#clip0_50_10720)">
<path fill-rule="evenodd" clip-rule="evenodd" d="M250 125C250 194.036 194.036 250 125 250C55.9641 250 0 194.036 0 125C0 55.9641 55.9641 0 125 0C194.036 0 250 55.9641 250 125Z" fill="url(#paint0_linear_50_10720)"/>
<path d="M158.988 51.9141L56.011 199.443H87.627L191.137 51.9141H158.988Z" fill="white"/>
<path d="M90.9203 51.9141L121.219 95.3859L105.411 119.098L58.6458 51.9141H90.9203Z" fill="url(#paint1_linear_50_10720)"/>
<path d="M162.056 199.456L128.464 151.374L144.272 128.32L193.672 199.456H162.056Z" fill="url(#paint2_linear_50_10720)"/>
</g>
<defs>
<linearGradient id="paint0_linear_50_10720" x1="125" y1="0" x2="125" y2="250" gradientUnits="userSpaceOnUse">
<stop stop-color="#201A6D"/>
<stop offset="1" stop-color="#091739"/>
</linearGradient>
<linearGradient id="paint1_linear_50_10720" x1="83.675" y1="61.1354" x2="127.049" y2="113.497" gradientUnits="userSpaceOnUse">
<stop stop-color="white"/>
<stop offset="1" stop-color="white" stop-opacity="0.55"/>
</linearGradient>
<linearGradient id="paint2_linear_50_10720" x1="169.302" y1="188.259" x2="116.012" y2="116.418" gradientUnits="userSpaceOnUse">
<stop stop-color="#6966FF"/>
<stop offset="1" stop-color="#6966FF" stop-opacity="0.36"/>
</linearGradient>
<clipPath id="clip0_50_10720">
<rect width="250" height="250" fill="white"/>
</clipPath>
</defs>
</svg>
